(MilleniumFalcon-v2)
(Machine)
(  vendor: OneFinity)
(  model: OneFinity)
(  description: OneFinity)
(T3  D=6.35 CR=0 TAPER=90deg - ZMIN=16.5 - countersink)
G90 G94
G17
G21
(When using Fusion for Personal Use, the feedrate of rapid)
(moves is reduced to match the feedrate of cutting moves,)
(which can increase machining time. Unrestricted rapid moves)
(are available with a Fusion Subscription.)

(2D Chamfer1)
M6 T3
S16000 M3
G54
M8
G0 X117.597 Y155.819
Z34
G00 Z24.0 (Changed from: "G1 Z24 F1500")
G01 Z16.5 F1000.0 (Changed from: "Z16.5 F1000")
X117.599 Y156.454
G3 X88.707 Y127.678 I-0.115 J-28.776 F1500
X146.26 Y127.678 I28.776 J0
X117.599 Y156.454 I-28.776 J0
G1 X117.597 Y155.819 F1000
G00 Z24.0 (Changed from: "Z24 F1500")
X126.103 Y179.709
G01 Z16.5 F1000.0 (Changed from: "Z16.5 F1000")
X126.738
Y244.912 F1500
G3 X123.738 Y247.912 I-3 J0
G1 X111.23
G3 X108.23 Y244.912 I0 J-3
G1 Y173.026
G3 X111.64 Y170.054 I3 J0
G2 X123.329 Y170.054 I5.844 J-42.376
G3 X126.738 Y173.026 I0.409 J2.972
G1 Y179.709
X126.103 F1000
G00 Z24.0 (Changed from: "Z24 F1500")
X194.939 Y198.392
G01 Z16.5 F1000.0 (Changed from: "Z16.5 F1000")
X195.315 Y198.904
G2 X194.613 Y199.527 I2.957 J4.032 F1500
G3 X178.611 Y213.555 I-77.132 J-71.847
G2 X177.025 Y215.42 I2.899 J4.073
G1 X145.178 Y280.131
G3 X139.486 Y278.807 I-2.692 J-1.324
G1 Y166.024
G3 X140.847 Y163.511 I3 J0
G2 X158.752 Y138.937 I-23.363 J-35.832
G3 X162.391 Y136.821 I2.894 J0.79
G1 X217.258 Y150.869
G3 X219.415 Y154.539 I-0.744 J2.906
X216.834 Y162.905 I-101.931 J-26.862
G2 X216.777 Y163.239 I0.943 J0.334
G1 Y209.82
X214.239 Y216.164
X213.767 Y217.343 F375
X212.544 F1500
X211.274 F375
X211.112 Y217.24
X202.734 Y200.679 F1500
G2 X195.315 Y198.904 I-4.462 J2.257
G1 X194.939 Y198.392 F1000
G00 Z24.0 (Changed from: "Z24 F1500")
X130.281 Y315.347
G01 Z16.5 F1000.0 (Changed from: "Z16.5 F1000")
X130.304 Y314.713
X130.486 Y314.716 F1500
X140.649
G2 X145.135 Y311.924 I0 J-5
G1 X188.042 Y224.739
X188.603 Y223.599 F375
G2 X196.154 Y217.51 I-71.118 J-95.922 F1500
X197.105 Y216.669 I-78.669 J-89.833 F375
G1 X201.091 Y224.546 F1500
G2 X202.877 Y226.513 I4.461 J-2.258
G1 X206.499 Y228.807
G2 X209.175 Y229.583 I2.676 J-4.224
G1 X218.669
G2 X223.311 Y226.441 I0 J-5
G1 X228.659 Y213.071
G2 X229.017 Y211.214 I-4.643 J-1.857
G1 Y170.882
G3 X229.21 Y169.824 I3 J0
G2 X234.884 Y149.499 I-111.725 J-42.147
X231.208 Y143.741 I-4.916 J-0.913
G1 X229.506 Y143.305
G3 X228.763 Y142.207 I0.248 J-0.969
G2 X228.763 Y113.15 I-111.279 J-14.529
G3 X229.506 Y112.051 I0.992 J-0.13
G1 X231.208 Y111.616
G2 X234.884 Y105.858 I-1.239 J-4.844
X194.897 Y36.761 I-117.4 J21.82
G3 X193.842 Y34.477 I1.945 J-2.284
G1 Y27.889
G2 X191.751 Y23.822 I-5 J0
X43.217 Y23.822 I-74.267 J103.856
X41.125 Y27.889 I2.908 J4.067
G1 Y34.477
G3 X40.07 Y36.761 I-3 J0
G2 X0.084 Y105.858 I77.414 J90.917
X3.76 Y111.616 I4.916 J0.914
G1 X5.462 Y112.051
G3 X6.206 Y113.149 I-0.248 J0.969
G2 X6.206 Y142.207 I111.278 J14.529
G3 X5.462 Y143.305 I-0.991 J0.129
G1 X3.76 Y143.741
G2 X0.084 Y149.499 I1.24 J4.844
X45.349 Y222.838 I117.4 J-21.821
X46.365 Y223.599 I72.135 J-95.16 F375
G1 X89.833 Y311.924 F1500
G2 X94.319 Y314.716 I4.486 J-2.207
G1 X104.482
G2 X109.482 Y309.716 I0 J-5
G1 Y264.912
G3 X112.482 Y261.912 I3 J0
G1 X122.486
G3 X125.486 Y264.912 I0 J3
G1 Y309.716
G2 X130.304 Y314.713 I5 J0
G1 X130.281 Y315.347 F1000
G00 Z24.0 (Changed from: "Z24 F1500")
X94.847 Y179.126
G01 Z16.5 F1000.0 (Changed from: "Z16.5 F1000")
X95.482
Y278.807 F1500
G3 X89.79 Y280.132 I-3 J0
G1 X57.943 Y215.42
G2 X56.356 Y213.555 I-4.485 J2.208
G3 X15.553 Y154.539 I61.128 J-85.877
X17.71 Y150.869 I2.901 J-0.764
G1 X74.307 Y136.378
X75.537 Y136.063 F375
G2 X94.12 Y163.511 I41.947 J-8.385 F1500
G3 X95.482 Y166.024 I-1.639 J2.513
G1 Y179.126
X94.847 F1000
G00 Z24.0 (Changed from: "Z24 F1500")
X30.661 Y135.983
G01 Z16.5 F1000.0 (Changed from: "Z16.5 F1000")
X30.819 Y136.598
X29.13 Y137.03 F1500
G3 X27.507 Y136.993 I-0.744 J-2.906
G1 X18.733 Y134.306
G3 X16.611 Y131.438 I0.878 J-2.868
G1 Y123.919
G3 X18.733 Y121.05 I3 J0
G1 X27.507 Y118.364
G3 X29.129 Y118.327 I0.878 J2.869
G1 X61.871 Y126.71
G3 X61.871 Y128.647 I-0.248 J0.969
G1 X30.819 Y136.598
X30.661 Y135.983 F1000
G00 Z24.0 (Changed from: "Z24 F1500")
X59.735 Y74.028
G01 Z16.5 F1000.0 (Changed from: "Z16.5 F1000")
X60.204 Y73.6
X82.876 Y98.465 F1500
G3 X83.072 Y102.269 I-2.217 J2.021
G2 X76.216 Y116.42 I34.412 J25.41
G3 X72.577 Y118.536 I-2.894 J-0.79
G1 X17.71 Y104.488
G3 X15.553 Y100.818 I0.744 J-2.906
X39.968 Y56.245 I101.931 J26.86
X44.391 Y56.257 I2.206 J2.033
G1 X60.204 Y73.6
X59.735 Y74.028 F1000
G00 Z24.0 (Changed from: "Z24 F1500")
X94.579 Y25.437
G01 Z16.5 F1000.0 (Changed from: "Z16.5 F1000")
X94.44 Y24.818
G3 X181.854 Y44.205 I23.044 J102.86 F1500
X182.239 Y48.602 I-1.832 J2.376
G1 X143.789 Y90.773
G3 X139.993 Y91.303 I-2.217 J-2.021
G2 X94.975 Y91.303 I-22.509 J36.375
G3 X91.179 Y90.773 I-1.579 J-2.551
G1 X52.729 Y48.602
G3 X53.114 Y44.205 I2.217 J-2.021
X94.44 Y24.818 I64.37 J83.473
G1 X94.579 Y25.437 F1000
G00 Z24.0 (Changed from: "Z24 F1500")
X209.936 Y78.377
G01 Z16.5 F1000.0 (Changed from: "Z16.5 F1000")
X210.496 Y78.079
G3 X219.415 Y100.818 I-93.012 J49.6 F1500
X217.258 Y104.488 I-2.901 J0.764
G1 X162.391 Y118.536
G3 X158.752 Y116.42 I-0.745 J-2.906
G2 X151.895 Y102.269 I-41.268 J11.258
G3 X152.092 Y98.465 I2.414 J-1.782
G1 X190.577 Y56.257
G3 X195 Y56.245 I2.217 J2.021
X210.496 Y78.079 I-77.515 J71.433
G1 X209.936 Y78.377 F1000
G00 Z24.0 (Changed from: "Z24 F1500")
X208.942 Y135.875
G01 Z16.5 F1000.0 (Changed from: "Z16.5 F1000")
X209.128 Y136.482
X207.46 Y136.993 F1500
G3 X205.838 Y137.03 I-0.878 J-2.869
G1 X173.097 Y128.647
G3 X173.097 Y126.71 I0.248 J-0.969
G1 X205.838 Y118.327
G3 X207.46 Y118.364 I0.744 J2.906
G1 X216.235 Y121.05
G3 X218.357 Y123.919 I-0.878 J2.869
G1 Y131.438
G3 X216.235 Y134.306 I-3 J0
G1 X209.128 Y136.482
X208.942 Y135.875 F1000
G00 Z34.0 (Changed from: "Z34 F1500")
G53 G90 G0 Z-5
M9
M5
M2
